X:1
T:Ships Are Sailing
R:reel
H:See also #687, #186
Z:id:hn-reel-151
M:C|
K:Edor
Beed BcdB|AD (3FED AD (3FED|~E3F GFGA|Beef gfed|
Beed BcdB|AD (3FED AD (3FED|~E3F GFGA|1 Beed e2ed:|2 Beed e2ef||
|:gfga bgeg|fefg afdf|~g3a bgeg|fedf e2ef|
~g3a bgeg|~f3g afdf|~g2bg ~f2af|1 edef gfef:|2 edef gfed||

